Icons/Colored/StarFilled.svg

<svg xmlns="http://www.w3.org/2000/svg" xml:space="preserve" fill-rule="evenodd" stroke-linejoin="round" stroke-miterlimit="2" clip-rule="evenodd" viewBox="0 0 64 64">
  <g id="orange">
    <path fill="#ffc60e" fill-rule="nonzero" d="M31.242 2.258a.798.798 0 0 1 1.516 0c1.777 5.285 6.129 18.234 7.066 21.012a.79.79 0 0 0 .735.543c2.871.078 16.019.429 21.265.57a.8.8 0 0 1 .485 1.422 25148.539 25148.539 0 0 0-16.954 13.664.79.79 0 0 0-.265.84c.781 2.773 4.555 16.132 6.062 21.476a.798.798 0 0 1-.312.875.798.798 0 0 1-.926-.008L32.469 50.027a.812.812 0 0 0-.938 0L14.086 62.652a.798.798 0 0 1-.926.008.798.798 0 0 1-.312-.875c1.507-5.344 5.281-18.703 6.062-21.476a.79.79 0 0 0-.265-.84L1.695 25.813a.804.804 0 0 1-.257-.879.795.795 0 0 1 .738-.543c5.25-.145 18.394-.493 21.265-.571a.794.794 0 0 0 .735-.543c.937-2.777 5.289-15.734 7.066-21.019Z"/>
  </g>
</svg>

<?xml version="1.0" encoding="UTF-8" standalone="no"?>
<!DOCTYPE svg PUBLIC "-//W3C//DTD SVG 1.1//EN" "http://www.w3.org/Graphics/SVG/1.1/DTD/svg11.dtd">
<svg width="100%" height="100%" viewBox="0 0 64 64" version="1.1" xmlns="http://www.w3.org/2000/svg" xmlns:xlink="http://www.w3.org/1999/xlink" xml:space="preserve" xmlns:serif="http://www.serif.com/" style="fill-rule:evenodd;clip-rule:evenodd;stroke-linejoin:round;stroke-miterlimit:2;">
    <g id="surface1">
        <path d="M31.242,2.258C31.352,1.93 31.656,1.711 32,1.711C32.344,1.711 32.648,1.93 32.758,2.258C34.535,7.543 38.887,20.492 39.824,23.27C39.93,23.59 40.223,23.805 40.559,23.813C43.43,23.891 56.578,24.242 61.824,24.383C62.16,24.391 62.457,24.609 62.563,24.926C62.672,25.242 62.566,25.594 62.309,25.805C58.141,29.16 47.57,37.68 45.355,39.469C45.105,39.668 45,40 45.09,40.309C45.871,43.082 49.645,56.441 51.152,61.785C51.246,62.113 51.121,62.465 50.84,62.66C50.563,62.855 50.188,62.852 49.914,62.652C45.547,59.492 34.84,51.742 32.469,50.027C32.188,49.828 31.813,49.828 31.531,50.027C29.16,51.742 18.453,59.492 14.086,62.652C13.813,62.852 13.438,62.855 13.16,62.66C12.879,62.465 12.754,62.113 12.848,61.785C14.355,56.441 18.129,43.082 18.91,40.309C19,40 18.895,39.668 18.645,39.469C16.43,37.684 5.859,29.168 1.695,25.813C1.434,25.602 1.332,25.25 1.438,24.934C1.547,24.613 1.84,24.398 2.176,24.391C7.426,24.246 20.57,23.898 23.441,23.82C23.777,23.813 24.07,23.594 24.176,23.277C25.113,20.5 29.465,7.543 31.242,2.258Z" style="fill:#ffc60e;fill-rule:nonzero;"/>
    </g>
</svg>
